img/icons/electronic/mobile-phone.svg

<svg xmlns="http://www.w3.org/2000/svg" viewBox="0 0 30 48"><defs><style>.cls-1{fill:#231f20}</style></defs><g id="Layer_2" data-name="Layer 2"><g id="Icons"><g id="Device_Electronic" data-name="Device / Electronic"><g id="Mobile_Phone" data-name="Mobile Phone"><path class="cls-1" d="M8 8V0H0v33a15 15 0 0030 0V8zm20 25a13 13 0 01-26 0V2h4v8h22z"/><path class="cls-1" d="M6 26h18V14H6zm2-10h14v8H8z"/></g></g></g></g></svg>

<svg xmlns="http://www.w3.org/2000/svg" viewBox="0 0 30 48"><defs><style>.cls-1{fill:#231f20;}</style></defs><title>Mobile Phone</title><g id="Layer_2" data-name="Layer 2"><g id="Icons"><g id="Device_Electronic" data-name="Device / Electronic"><g id="Mobile_Phone" data-name="Mobile Phone"><path class="cls-1" d="M8,8V0H0V33a15,15,0,0,0,30,0V8ZM28,33A13,13,0,0,1,2,33V2H6v8H28Z"/><path class="cls-1" d="M6,26H24V14H6ZM8,16H22v8H8Z"/></g></g></g></g></svg>
